X:1
T: Miss Moira Grant McLoughlin
C:Bruce Shawyer
R:Jig
Q:180
K:G
M:6/8
L:1/16
|:D2|G4G2 A2F2D2|G2B2G2 D4D2|E4E2 c2B2A2|F2A2F2 D2E2F2|
G4G2 A2F2D2|G2B2G2 D4D2|E2F2G2 A2F2D2|G6 G4:|
|:Bc|d4d2 e2d2c2|d2g2d2 B2c2d2|e4e2 a4g2|f4d2 d2B2c2|
d4d2 e2d2c2|d2g2d2 B2c2d2|e2f2g2 a2f2d2|g6 G4:|
